Hatter-kde-dark/actions/16/view-multiple-objects.svg

<?xml version="1.0" encoding="UTF-8"?>
<svg viewBox="0 0 16 16" xmlns="http://www.w3.org/2000/svg">
 <defs id="defs3051">
  <style id="current-color-scheme" type="text/css">.ColorScheme-Text {
        color:#dedede;
      }</style>
 </defs>
 <path class="ColorScheme-Text" d="m2 3v5h8v-5h-8zm9 0v5h3v-5h-3zm-8 1h6v3h-6v-3zm-1 5v5h12v-5h-12zm1 1h10v3h-10v-3z" fill="currentColor"/>
</svg>

<svg xmlns="http://www.w3.org/2000/svg" viewBox="0 0 16 16">
  <defs id="defs3051">
    <style type="text/css" id="current-color-scheme">
      .ColorScheme-Text {
        color:#dedede;
      }
      </style>
  </defs>
 <path style="fill:currentColor;fill-opacity:1;stroke:none" 
       d="M 2 3 L 2 8 L 10 8 L 10 3 L 2 3 z M 11 3 L 11 8 L 14 8 L 14 3 L 11 3 z M 3 4 L 9 4 L 9 7 L 3 7 L 3 4 z M 2 9 L 2 14 L 14 14 L 14 9 L 2 9 z M 3 10 L 13 10 L 13 13 L 3 13 L 3 10 z "
     class="ColorScheme-Text"
     />
</svg>
